_assets/images/gallery/s04e13-02.svg

<svg xmlns="http://www.w3.org/2000/svg" width="500" height="550" viewBox="0 0 500 550"><defs><clipPath id="a"><path d="M372.64 294.25q-.27 61.75-.64 123.46c-.81 9-2.68 16.41-3.55 25.44-1 10.08 1.34 17.05-1.5 25.64-.59 1.77-2 1.66-3.35 1.43-17.11-3-44.4-5-49.44-2.65S185 467.3 185 467.3c-5.26.12-31.86-.87-51 2.09-5.23.59-5.68.27-6.62-4.82-1.35-11.26 1.94-18.54.53-29.32-6.15-46.81-1.39-94.37-3.6-141.53-1.42 2.83-2.94 5.61-4.29 8.46-2.36 10.68-17.5 9.3-11.81 16.19 11.11 7.94 6.41 21.38 5.15 32.55-.24 3.16-1.35 6.27-.37 9.58.51 8.44-3.19 16.94-4.38 25.31-1.5 8-10.41 41.28-11.86 49.29-.57 3.18-.61 3-3.74 2-12.38-3.52-26.09-4.38-38.6-1.18-1.39.35-2.1 0-2.41-1.47-2-7.76.82-16.67-5.49-22.42a6.66 6.66 0 01-1.33-3.22c-2.23-11-6.07-22.12-5.72-33.31-1.91-63 2.6-126.93 26.19-186 13.61-35.44 24.56-73.33 48.07-103.68 27.32-18.2 53.76-21.56 84.19-32.59.8-.26 2.08-9.27 10.21-10.83 5.62-1.08 61.29-.38 83.31.47 5.76 1.58 8.5 11 9.63 11.45 29.12 10.5 52 11.36 78.36 28.54 15.94 14.58 21.63 38 30.45 57.2 27.81 67.49 58 137.39 51.06 212.08-1.2 18.65-.24 37.45-3.29 55.95-.49 4.66-5.21 7.1-5.56 11.78-1.22 5.28-2.08 10.65-2.91 16-.4 2.61-.41 2.83-3.08 2.33-12.48-2.65-25.26-5.48-37.8-1.58-8.34-.14-8.13-15.56-11.44-21.4-6.28-7.37-3.61-9-5.33-17.63-.9-9.71-4.68-20.28.79-29.27 2-3.53 1.86-7.05.51-10.66-4.9-11.28-7.4-23.41-10.45-35.29-1.06-4.3-1.31-8.49 1.61-12.34 1.51-7.23-10.43-8.68-10.93-15.92z" fill="none"/></clipPath><clipPath id="b"><path fill="none" d="M122.85 142.56h248.6v97.58h-248.6z"/></clipPath><clipPath id="c"><path fill="none" d="M371.45 160.9h76.33v72.88h-76.33z"/></clipPath><clipPath id="d"><path transform="rotate(-180 84.68 197.34)" fill="none" d="M46.51 160.9h76.33v72.88H46.51z"/></clipPath></defs><g clip-path="url(#a)"><path fill="#eeeee9" d="M29.87 26.11h445.15v463.73H29.87z"/><path fill="none" stroke="#813b4a" stroke-linecap="round" stroke-linejoin="round" stroke-width="8" d="M389.78 360.08l14 20 14-20 14 20 14-20 14.01 20"/><path fill="none" stroke="#262521" stroke-linecap="round" stroke-linejoin="round" stroke-width="7" d="M389.78 370.08l14 20 14-20 14 20 14-20 14.01 20"/><path fill="none" stroke="#813b4a" stroke-linecap="round" stroke-linejoin="round" stroke-width="8" d="M122.14 387.82l16.86 20 16.86-20 16.85 20 16.86-20 16.86 20 16.86-20 16.86 20 16.86-20 16.87 20 16.86-20 16.86 20 16.86-20 16.87 20 16.87-20 16.86 20"/><path fill="none" stroke="#262521" stroke-linecap="round" stroke-linejoin="round" stroke-width="7" d="M122.14 397.32l16.86 20 16.86-20 16.85 20 16.86-20 16.86 20 16.86-20 16.86 20 16.86-20 16.87 20 16.86-20 16.86 20 16.86-20 16.87 20 16.87-20 16.86 20"/><path fill="none" stroke="#813b4a" stroke-linecap="round" stroke-linejoin="round" stroke-width="8" d="M114.07 380.08l-14.93-20-14.94 20-14.93-20-14.94 20-14.94-20"/><path fill="none" stroke="#262521" stroke-linecap="round" stroke-linejoin="round" stroke-width="7" d="M114.07 390.08l-14.93-20-14.94 20-14.93-20-14.94 20-14.94-20"/><g clip-path="url(#b)" fill="none" stroke-linecap="round" stroke-linejoin="round"><path stroke="#813b4a" stroke-width="8" d="M122.14 192.03l16.66 20 16.66-20 16.65 20 16.66-20 16.66 20 16.66-20 16.66 20 16.66-20 16.67 20 16.66-20 16.66 20 16.66-20 16.67 20 16.67-20 16.66 20"/><path stroke="#262521" stroke-width="7" d="M122.14 201.53l16.62 20 16.63-20 16.62 20 16.63-20 16.62 20 16.63-20 16.63 20 16.63-20 16.63 20 16.63-20 16.62 20 16.63-20 16.64 20 16.63-20 16.63 20"/></g><g clip-path="url(#c)" fill="none" stroke-linecap="round" stroke-linejoin="round"><path stroke="#813b4a" stroke-width="8" d="M367.31 203.29l21.62 11.33 3.24-24.2 21.62 11.33 3.25-24.2 21.63 11.33"/><path stroke="#262521" stroke-width="7" d="M371.9 212.17l21.62 11.33 3.25-24.2 21.62 11.33 3.25-24.2 21.63 11.33"/></g><g clip-path="url(#d)" fill="none" stroke-linecap="round" stroke-linejoin="round"><path stroke="#813b4a" stroke-width="8" d="M129.79 225.37l-4.35-24.75-22.68 10.81-4.35-24.75-22.7 10.8-4.36-24.75"/><path stroke="#262521" stroke-width="7" d="M125.2 234.25l-4.35-24.75-22.69 10.81-4.35-24.75-22.69 10.8-4.36-24.75"/></g><path d="M86.67 136.66s72.29 25 162.5 25 160.7-25 160.7-25" fill="none" stroke="#262521" stroke-miterlimit="10" stroke-width="11" stroke-dasharray="15 5"/><path fill="none" stroke="#813b4a" stroke-linecap="round" stroke-linejoin="round" stroke-width="8" d="M400.54 116.52l-17.52-16.86-9.89 22.18-16.98-17.38-10.47 21.92-16.5-17.82-11.09 21.6-15.94-18.32-11.84 21.22-15.21-18.94-12.81 20.64-14.12-19.75-13.93 19.75-12.63-20.62-15.03 18.94-11.65-21.2-15.78 18.33-10.88-21.6-16.36 17.81-10.24-21.9-16.85 17.35-9.63-22.18-15.25-2.94"/><path d="M100.15 84.62l4.39-2.79S195.24 100 248.17 100c66.27 0 133.4-14.7 133.4-14.7s11.58 12.44 13.15 19-13.18-3.23-13.18-3.23l-9.86 16.25-15.53-12.85-9.25 18.85-16.57-14.68-13.25 17.05-14.93-13.84-11.27 18.41-15.78-16.14-13.72 17.08-12.21-16.57-14.94 17.83-13.57-17.67-13.41 16.72-11.36-19.72-16.1 14.52-13.25-15.15-13.73 12.62-12.17-18.85-14.43 12.39L113.37 103l-15.22 9.63-9.42-13z" fill="#813b4a"/><path d="M86.67 81.49s77.79 24.1 162.41 24.1c90.21 0 161.83-22.13 161.83-22.13" fill="none" stroke="#262521" stroke-miterlimit="10" stroke-width="11" stroke-dasharray="15 5"/></g><path d="M205.91 51s4.76 10.86 44.43 9.64 42.09-8.75 42.09-8.75" fill="none" stroke="#262521" stroke-linecap="round" stroke-linejoin="round" stroke-width="3"/><path d="M372.64 294.25q-.27 61.75-.64 123.46c-.81 9-2.68 16.41-3.55 25.44-1 10.08 1.34 17.05-1.5 25.64-.59 1.77-2 1.66-3.35 1.43-17.11-3-44.4-5-49.44-2.65S185 467.3 185 467.3c-5.26.12-31.86-.87-51 2.09-5.23.59-5.68.27-6.62-4.82-1.35-11.26 1.94-18.54.53-29.32-6.15-46.81-1.39-94.37-3.6-141.53-1.42 2.83-2.94 5.61-4.29 8.46-2.36 10.68-17.5 9.3-11.81 16.19 11.11 7.94 6.41 21.38 5.15 32.55-.24 3.16-1.35 6.27-.37 9.58.51 8.44-3.19 16.94-4.38 25.31-1.5 8-10.41 41.28-11.86 49.29-.57 3.18-.61 3-3.74 2-12.38-3.52-26.09-4.38-38.6-1.18-1.39.35-2.1 0-2.41-1.47-2-7.76.82-16.67-5.49-22.42a6.66 6.66 0 01-1.33-3.22c-2.23-11-6.07-22.12-5.72-33.31-1.91-63 2.6-126.93 26.19-186 13.61-35.44 24.56-73.33 48.07-103.68 27.32-18.2 53.76-21.56 84.19-32.59.2-.06 3.24-11.1 12.76-11.13 19.57-.06 58.27-.3 77.55.13 8.62.19 12 11.74 12.84 12.09 29.12 10.5 52 11.36 78.36 28.54 15.94 14.58 21.63 38 30.45 57.2 27.81 67.49 58 137.39 51.06 212.08-1.2 18.65-.24 37.45-3.29 55.95-.49 4.66-5.21 7.1-5.56 11.78-1.22 5.28-2.08 10.65-2.91 16-.4 2.61-.41 2.83-3.08 2.33-12.48-2.65-25.26-5.48-37.8-1.58-8.34-.14-8.13-15.56-11.44-21.4-6.28-7.37-3.61-9-5.33-17.63-.9-9.71-4.68-20.28.79-29.27 2-3.53 1.86-7.05.51-10.66-4.9-11.28-7.4-23.41-10.45-35.29-1.06-4.3-1.31-8.49 1.61-12.34 1.51-7.23-10.43-8.68-10.93-15.92z" fill="none" stroke="#262521" stroke-linecap="round" stroke-linejoin="round" stroke-width="3"/><path fill="none" stroke="#d5d5d1" stroke-linecap="round" stroke-linejoin="round" stroke-width="4" d="M248.17 67.37v14.46m10.12-14.7l.75 14.44m8.26-15.63l2.41 14.26m6.78-15.41l5.16 13.51m4.52-15.41l8.13 11.96m.5-15.84l11.52 8.75m-68.27-.63l-.75 14.44m-8.76-14.6l-2.41 14.26m-7.28-15.42l-5.16 13.51m-3.71-16.43l-8.13 11.96m.73-17.16l-11.52 8.75"/><path d="M122.3 183.54s2.11 28.61 0 44.24.11 29.7.11 32.88 1.9 33.06 1.9 33.06m247.52-102.37s-1.25 73.86.81 102.9" fill="none" stroke="#262521" stroke-linecap="round" stroke-linejoin="round" stroke-width="3"/><path fill="none" stroke="#d5d5d1" stroke-linecap="round" stroke-linejoin="round" stroke-width="4" d="M74.39 408.64v20.46m-9.64-20.45l.98 20.44m19.15-20.43l-1.48 20.41m11.59-18.25l-4.14 20.04m-35-20.83l2.04 20.36m367.43-21.49v20.47m-10.11-20.42l1.9 20.37m18.69-20.39l-1.48 20.41m11.59-18.25l-4.14 20.04m-36.39-20.7l3.82 20.1m-161.39 9.66v20.46m11.06-20.46v20.46m11.06-20.46v20.46m11.06-20.46v20.46m11.07-20.46v20.46m11.06-20.96v20.46m10.96-20.96v20.46m11.16-21.46v20.46m-153.29-19.96v20.46m20.55-19.46v20.46m-9.96-20.46v20.46m21.02-19.96v20.46m-65.95-20.45l1.15 20.43m9.79-21.92l1.39 20.41m10.87-20.93v20.46m53.81-18.46v20.46m11.06-20.96v20.46m11.07-19.96v20.46m99.92-21.46l-.73 20.45m12.04-19.44l-1.23 20.43m12.09-19.44l-.82 20.45"/><path fill="none" stroke="#262521" stroke-linecap="round" stroke-linejoin="round" stroke-width="2" stroke-dasharray="15 5" d="M259.63 85.72l1.61 1.61 1.57-1.57m1.63 3.27l1.62 1.61 1.57-1.57m1.8 3.2l1.61 1.61 1.58-1.57m1.59 3.02l1.61 1.61 1.57-1.57m-37.6-8.84l1.61 1.61 1.57-1.57m1.64 3.26l1.61 1.61 1.57-1.57m1.81 3.2l1.61 1.61 1.57-1.57m1.59 3.03l1.61 1.61 1.57-1.58m-37.52-10.01l1.61 1.61 1.57-1.57m1.63 3.26l1.62 1.61 1.57-1.57m1.8 3.2l1.61 1.61 1.57-1.57m1.6 3.03l1.61 1.61 1.57-1.57M139.05 76.5l1.61 1.61 1.57-1.57m1.14 3.26l1.61 1.61 1.57-1.57m1.31 3.21l1.61 1.6 1.57-1.57m1.59 3.53l1.61 1.61 1.58-1.57m-26.9-6.59l1.61 1.61 1.57-1.57m1.59 3.53l1.61 1.6 1.57-1.57m141.59 1.26l1.61 1.61 1.57-1.57m1.64 3.26l1.61 1.61 1.57-1.57m1.81 3.2l1.61 1.61 1.57-1.57m1.59 3.03l1.61 1.61 1.57-1.58m1.72-12.34l1.6 1.61 1.58-1.57m1.63 3.27l1.61 1.61 1.58-1.57m1.8 3.2l1.61 1.61 1.57-1.57m1.6 3.02l1.61 1.61 1.57-1.57m39.04-17.67l1.61 1.61 1.57-1.57m1.64 3.26l1.61 1.61 1.57-1.57m1.81 3.21l1.6 1.61 1.58-1.58m1.59 3.03l1.61 1.61 1.57-1.57m-54.13-4.04l1.61 1.61 1.57-1.57m-8.53-3.32l1.61 1.61 1.57-1.57m-7.68-3.5l1.61 1.61 1.58-1.57m11.48 10l1.61 1.61 1.57-1.57m1.81 3.2l1.61 1.61 1.57-1.57m1.59 3.03l1.61 1.61 1.57-1.57m.61-12.46l1.61 1.61 1.57-1.57m-8.54-3.32l1.61 1.61 1.57-1.57m-7.67-3.49l1.61 1.6 1.57-1.57m11.49 10.01l1.61 1.61 1.57-1.57m1.81 3.2l1.61 1.61 1.57-1.57m1.59 3.02l1.61 1.61 1.57-1.57m-173.87-4.29l1.61 1.61 1.57-1.57m-8.53-3.32l1.61 1.61 1.57-1.57m-7.68-3.5l1.62 1.61 1.57-1.57m-13.89 4.72l1.61 1.6 1.57-1.57m-8.54-3.32l1.62 1.61 1.57-1.57m-7.68-3.49l1.61 1.61 1.57-1.58m11.49 10.01l1.61 1.61 1.57-1.57m1.81 3.2l1.61 1.61 1.57-1.57m1.59 3.02l1.61 1.61 1.57-1.57m-11.51-18.26l1.61 1.61 1.57-1.57m-7.34-3.74l1.61 1.61 1.57-1.57m20.1 17.56l1.61 1.61 1.57-1.57m1.81 3.2l1.61 1.61 1.57-1.57m1.6 3.03l1.6 1.61 1.58-1.57m1.14-7.53l1.61 1.61 1.57-1.57m-8.53-3.32l1.61 1.61 1.57-1.58m-7.68-3.49l1.61 1.61 1.58-1.57m-7.64-3.9l1.61 1.61 1.57-1.57m-7.79-3.98l1.61 1.61 1.57-1.58m-7.56-3.83l1.61 1.61 1.58-1.58m24.92 21.61l1.61 1.61 1.57-1.57m1.81 3.2l1.61 1.61 1.57-1.57m1.59 3.03l1.61 1.61 1.58-1.57"/></svg>

<svg xmlns="http://www.w3.org/2000/svg" width="500" height="550" viewBox="0 0 500 550"><defs><clipPath id="a"><path d="M372.64 294.25q-.27 61.75-.64 123.46c-.81 9-2.68 16.41-3.55 25.44-1 10.08 1.34 17.05-1.5 25.64-.59 1.77-2 1.66-3.35 1.43-17.11-3-44.4-5-49.44-2.65S185 467.3 185 467.3c-5.26.12-31.86-.87-51 2.09-5.23.59-5.68.27-6.62-4.82-1.35-11.26 1.94-18.54.53-29.32-6.15-46.81-1.39-94.37-3.6-141.53-1.42 2.83-2.94 5.61-4.29 8.46-2.36 10.68-17.5 9.3-11.81 16.19 11.11 7.94 6.41 21.38 5.15 32.55-.24 3.16-1.35 6.27-.37 9.58.51 8.44-3.19 16.94-4.38 25.31-1.5 8-10.41 41.28-11.86 49.29-.57 3.18-.61 3-3.74 2-12.38-3.52-26.09-4.38-38.6-1.18-1.39.35-2.1 0-2.41-1.47-2-7.76.82-16.67-5.49-22.42a6.66 6.66 0 01-1.33-3.22c-2.23-11-6.07-22.12-5.72-33.31-1.91-63 2.6-126.93 26.19-186 13.61-35.44 24.56-73.33 48.07-103.68 27.32-18.2 53.76-21.56 84.19-32.59.8-.26 2.08-9.27 10.21-10.83 5.62-1.08 61.29-.38 83.31.47 5.76 1.58 8.5 11 9.63 11.45 29.12 10.5 52 11.36 78.36 28.54 15.94 14.58 21.63 38 30.45 57.2 27.81 67.49 58 137.39 51.06 212.08-1.2 18.65-.24 37.45-3.29 55.95-.49 4.66-5.21 7.1-5.56 11.78-1.22 5.28-2.08 10.65-2.91 16-.4 2.61-.41 2.83-3.08 2.33-12.48-2.65-25.26-5.48-37.8-1.58-8.34-.14-8.13-15.56-11.44-21.4-6.28-7.37-3.61-9-5.33-17.63-.9-9.71-4.68-20.28.79-29.27 2-3.53 1.86-7.05.51-10.66-4.9-11.28-7.4-23.41-10.45-35.29-1.06-4.3-1.31-8.49 1.61-12.34 1.51-7.23-10.43-8.68-10.93-15.92z" fill="none"/></clipPath><clipPath id="b"><path fill="none" d="M122.85 142.56h248.6v97.58h-248.6z"/></clipPath><clipPath id="c"><path fill="none" d="M371.45 160.9h76.33v72.88h-76.33z"/></clipPath><clipPath id="d"><path transform="rotate(-180 84.68 197.34)" fill="none" d="M46.51 160.9h76.33v72.88H46.51z"/></clipPath></defs><g clip-path="url(#a)"><path fill="#eeeee9" d="M29.87 26.11h445.15v463.73H29.87z"/><path fill="none" stroke="#813b4a" stroke-linecap="round" stroke-linejoin="round" stroke-width="8" d="M389.78 360.08l14 20 14-20 14 20 14-20 14.01 20"/><path fill="none" stroke="#262521" stroke-linecap="round" stroke-linejoin="round" stroke-width="7" d="M389.78 370.08l14 20 14-20 14 20 14-20 14.01 20"/><path fill="none" stroke="#813b4a" stroke-linecap="round" stroke-linejoin="round" stroke-width="8" d="M122.14 387.82l16.86 20 16.86-20 16.85 20 16.86-20 16.86 20 16.86-20 16.86 20 16.86-20 16.87 20 16.86-20 16.86 20 16.86-20 16.87 20 16.87-20 16.86 20"/><path fill="none" stroke="#262521" stroke-linecap="round" stroke-linejoin="round" stroke-width="7" d="M122.14 397.32l16.86 20 16.86-20 16.85 20 16.86-20 16.86 20 16.86-20 16.86 20 16.86-20 16.87 20 16.86-20 16.86 20 16.86-20 16.87 20 16.87-20 16.86 20"/><path fill="none" stroke="#813b4a" stroke-linecap="round" stroke-linejoin="round" stroke-width="8" d="M114.07 380.08l-14.93-20-14.94 20-14.93-20-14.94 20-14.94-20"/><path fill="none" stroke="#262521" stroke-linecap="round" stroke-linejoin="round" stroke-width="7" d="M114.07 390.08l-14.93-20-14.94 20-14.93-20-14.94 20-14.94-20"/><g clip-path="url(#b)" fill="none" stroke-linecap="round" stroke-linejoin="round"><path stroke="#813b4a" stroke-width="8" d="M122.14 192.03l16.66 20 16.66-20 16.65 20 16.66-20 16.66 20 16.66-20 16.66 20 16.66-20 16.67 20 16.66-20 16.66 20 16.66-20 16.67 20 16.67-20 16.66 20"/><path stroke="#262521" stroke-width="7" d="M122.14 201.53l16.62 20 16.63-20 16.62 20 16.63-20 16.62 20 16.63-20 16.63 20 16.63-20 16.63 20 16.63-20 16.62 20 16.63-20 16.64 20 16.63-20 16.63 20"/></g><g clip-path="url(#c)" fill="none" stroke-linecap="round" stroke-linejoin="round"><path stroke="#813b4a" stroke-width="8" d="M367.31 203.29l21.62 11.33 3.24-24.2 21.62 11.33 3.25-24.2 21.63 11.33"/><path stroke="#262521" stroke-width="7" d="M371.9 212.17l21.62 11.33 3.25-24.2 21.62 11.33 3.25-24.2 21.63 11.33"/></g><g clip-path="url(#d)" fill="none" stroke-linecap="round" stroke-linejoin="round"><path stroke="#813b4a" stroke-width="8" d="M129.79 225.37l-4.35-24.75-22.68 10.81-4.35-24.75-22.7 10.8-4.36-24.75"/><path stroke="#262521" stroke-width="7" d="M125.2 234.25l-4.35-24.75-22.69 10.81-4.35-24.75-22.69 10.8-4.36-24.75"/></g><path d="M86.67 136.66s72.29 25 162.5 25 160.7-25 160.7-25" fill="none" stroke="#262521" stroke-miterlimit="10" stroke-width="11" stroke-dasharray="15 5"/><path fill="none" stroke="#813b4a" stroke-linecap="round" stroke-linejoin="round" stroke-width="8" d="M400.54 116.52l-17.52-16.86-9.89 22.18-16.98-17.38-10.47 21.92-16.5-17.82-11.09 21.6-15.94-18.32-11.84 21.22-15.21-18.94-12.81 20.64-14.12-19.75-13.93 19.75-12.63-20.62-15.03 18.94-11.65-21.2-15.78 18.33-10.88-21.6-16.36 17.81-10.24-21.9-16.85 17.35-9.63-22.18-15.25-2.94"/><path d="M100.15 84.62l4.39-2.79S195.24 100 248.17 100c66.27 0 133.4-14.7 133.4-14.7s11.58 12.44 13.15 19-13.18-3.23-13.18-3.23l-9.86 16.25-15.53-12.85-9.25 18.85-16.57-14.68-13.25 17.05-14.93-13.84-11.27 18.41-15.78-16.14-13.72 17.08-12.21-16.57-14.94 17.83-13.57-17.67-13.41 16.72-11.36-19.72-16.1 14.52-13.25-15.15-13.73 12.62-12.17-18.85-14.43 12.39L113.37 103l-15.22 9.63-9.42-13z" fill="#813b4a"/><path d="M86.67 81.49s77.79 24.1 162.41 24.1c90.21 0 161.83-22.13 161.83-22.13" fill="none" stroke="#262521" stroke-miterlimit="10" stroke-width="11" stroke-dasharray="15 5"/></g><path d="M205.91 51s4.76 10.86 44.43 9.64 42.09-8.75 42.09-8.75" fill="none" stroke="#262521" stroke-linecap="round" stroke-linejoin="round" stroke-width="3"/><path d="M372.64 294.25q-.27 61.75-.64 123.46c-.81 9-2.68 16.41-3.55 25.44-1 10.08 1.34 17.05-1.5 25.64-.59 1.77-2 1.66-3.35 1.43-17.11-3-44.4-5-49.44-2.65S185 467.3 185 467.3c-5.26.12-31.86-.87-51 2.09-5.23.59-5.68.27-6.62-4.82-1.35-11.26 1.94-18.54.53-29.32-6.15-46.81-1.39-94.37-3.6-141.53-1.42 2.83-2.94 5.61-4.29 8.46-2.36 10.68-17.5 9.3-11.81 16.19 11.11 7.94 6.41 21.38 5.15 32.55-.24 3.16-1.35 6.27-.37 9.58.51 8.44-3.19 16.94-4.38 25.31-1.5 8-10.41 41.28-11.86 49.29-.57 3.18-.61 3-3.74 2-12.38-3.52-26.09-4.38-38.6-1.18-1.39.35-2.1 0-2.41-1.47-2-7.76.82-16.67-5.49-22.42a6.66 6.66 0 01-1.33-3.22c-2.23-11-6.07-22.12-5.72-33.31-1.91-63 2.6-126.93 26.19-186 13.61-35.44 24.56-73.33 48.07-103.68 27.32-18.2 53.76-21.56 84.19-32.59.2-.06 3.24-11.1 12.76-11.13 19.57-.06 58.27-.3 77.55.13 8.62.19 12 11.74 12.84 12.09 29.12 10.5 52 11.36 78.36 28.54 15.94 14.58 21.63 38 30.45 57.2 27.81 67.49 58 137.39 51.06 212.08-1.2 18.65-.24 37.45-3.29 55.95-.49 4.66-5.21 7.1-5.56 11.78-1.22 5.28-2.08 10.65-2.91 16-.4 2.61-.41 2.83-3.08 2.33-12.48-2.65-25.26-5.48-37.8-1.58-8.34-.14-8.13-15.56-11.44-21.4-6.28-7.37-3.61-9-5.33-17.63-.9-9.71-4.68-20.28.79-29.27 2-3.53 1.86-7.05.51-10.66-4.9-11.28-7.4-23.41-10.45-35.29-1.06-4.3-1.31-8.49 1.61-12.34 1.51-7.23-10.43-8.68-10.93-15.92z" fill="none" stroke="#262521" stroke-linecap="round" stroke-linejoin="round" stroke-width="3"/><path fill="none" stroke="#d5d5d1" stroke-linecap="round" stroke-linejoin="round" stroke-width="4" d="M248.17 67.37v14.46M258.29 67.13l.75 14.44M267.3 65.94l2.41 14.26M276.49 64.79l5.16 13.51M286.17 62.89l8.13 11.96M294.8 59.01l11.52 8.75M238.05 67.13l-.75 14.44M228.54 66.97l-2.41 14.26M218.85 65.81l-5.16 13.51M209.98 62.89l-8.13 11.96M202.58 57.69l-11.52 8.75"/><path d="M122.3 183.54s2.11 28.61 0 44.24.11 29.7.11 32.88 1.9 33.06 1.9 33.06M371.83 191.35s-1.25 73.86.81 102.9" fill="none" stroke="#262521" stroke-linecap="round" stroke-linejoin="round" stroke-width="3"/><path fill="none" stroke="#d5d5d1" stroke-linecap="round" stroke-linejoin="round" stroke-width="4" d="M74.39 408.64v20.46M64.75 408.65l.98 20.44M84.88 408.66l-1.48 20.41M94.99 410.82l-4.14 20.04M55.85 410.03l2.04 20.36M425.32 408.9v20.47M415.21 408.95l1.9 20.37M435.8 408.93l-1.48 20.41M445.91 411.09l-4.14 20.04M405.38 410.43l3.82 20.1M247.81 440.19v20.46M258.87 440.19v20.46M269.93 440.19v20.46M280.99 440.19v20.46M292.06 440.19v20.46M303.12 439.69v20.46M314.08 439.19v20.46M325.24 438.19v20.46M171.95 438.69v20.46M192.5 439.69v20.46M182.54 439.69v20.46M203.56 440.19v20.46M137.61 440.2l1.15 20.43M148.55 438.71l1.39 20.41M160.81 438.19v20.46M214.62 440.19v20.46M225.68 439.69v20.46M236.75 440.19v20.46M336.67 439.19l-.73 20.45M347.98 440.2l-1.23 20.43M358.84 441.19l-.82 20.45"/><path fill="none" stroke="#262521" stroke-linecap="round" stroke-linejoin="round" stroke-width="2" stroke-dasharray="15 5" d="M259.63 85.72l1.61 1.61 1.57-1.57M264.44 89.03l1.62 1.61 1.57-1.57M269.43 92.27l1.61 1.61 1.58-1.57M274.21 95.33l1.61 1.61 1.57-1.57M239.79 86.53l1.61 1.61 1.57-1.57M244.61 89.83l1.61 1.61 1.57-1.57M249.6 93.07l1.61 1.61 1.57-1.57M254.37 96.14l1.61 1.61 1.57-1.58M220.03 86.16l1.61 1.61 1.57-1.57M224.84 89.46l1.62 1.61 1.57-1.57M229.83 92.7l1.61 1.61 1.57-1.57M234.61 95.77l1.61 1.61 1.57-1.57M139.05 76.5l1.61 1.61 1.57-1.57M143.37 79.8l1.61 1.61 1.57-1.57M147.86 83.05l1.61 1.6 1.57-1.57M152.63 86.61l1.61 1.61 1.58-1.57M128.92 80.06l1.61 1.61 1.57-1.57M133.69 83.63l1.61 1.6 1.57-1.57M278.46 84.92l1.61 1.61 1.57-1.57M283.28 88.22l1.61 1.61 1.57-1.57M288.27 91.46l1.61 1.61 1.57-1.57M293.04 94.53l1.61 1.61 1.57-1.58M297.94 82.22l1.6 1.61 1.58-1.57M302.75 85.53l1.61 1.61 1.58-1.57M307.74 88.77l1.61 1.61 1.57-1.57M312.52 91.83l1.61 1.61 1.57-1.57M354.74 74.2l1.61 1.61 1.57-1.57M359.56 77.5l1.61 1.61 1.57-1.57M364.55 80.75l1.6 1.61 1.58-1.58M369.32 83.81l1.61 1.61 1.57-1.57M318.37 79.81l1.61 1.61 1.57-1.57M313.02 76.53l1.61 1.61 1.57-1.57M308.52 73.07l1.61 1.61 1.58-1.57M323.19 83.11l1.61 1.61 1.57-1.57M328.18 86.35l1.61 1.61 1.57-1.57M332.95 89.42l1.61 1.61 1.57-1.57M336.74 77l1.61 1.61 1.57-1.57M331.38 73.72l1.61 1.61 1.57-1.57M326.89 70.27l1.61 1.6 1.57-1.57M341.56 80.31l1.61 1.61 1.57-1.57M346.55 83.55l1.61 1.61 1.57-1.57M351.32 86.61l1.61 1.61 1.57-1.57M180.63 82.36l1.61 1.61 1.57-1.57M175.28 79.08l1.61 1.61 1.57-1.57M170.78 75.62l1.62 1.61 1.57-1.57M160.08 80.38l1.61 1.6 1.57-1.57M154.72 77.09l1.62 1.61 1.57-1.57M150.23 73.64l1.61 1.61 1.57-1.58M164.9 83.68l1.61 1.61 1.57-1.57M169.89 86.92l1.61 1.61 1.57-1.57M174.66 89.98l1.61 1.61 1.57-1.57M166.33 71.76l1.61 1.61 1.57-1.57M162.17 68.06l1.61 1.61 1.57-1.57M185.45 85.66l1.61 1.61 1.57-1.57M190.44 88.9l1.61 1.61 1.57-1.57M195.22 91.97l1.6 1.61 1.58-1.57M199.54 84.48l1.61 1.61 1.57-1.57M194.19 81.2l1.61 1.61 1.57-1.58M189.69 77.74l1.61 1.61 1.58-1.57M185.24 73.88l1.61 1.61 1.57-1.57M180.63 69.94l1.61 1.61 1.57-1.58M176.25 66.14l1.61 1.61 1.58-1.58M204.36 87.78l1.61 1.61 1.57-1.57M209.35 91.02l1.61 1.61 1.57-1.57M214.12 94.09l1.61 1.61 1.58-1.57"/></svg>
